src/client/web-contents/img/common/badge/badge_family_01.svg

<?xml version="1.0" encoding="UTF-8" standalone="no"?>
<svg width="32px" height="32px" viewBox="0 0 32 32" version="1.1" xmlns="http://www.w3.org/2000/svg" xmlns:xlink="http://www.w3.org/1999/xlink">
    <!-- Generator: Sketch 50.2 (55047) - http://www.bohemiancoding.com/sketch -->
    <title>graphic_badge_family_01</title>
    <desc>Created with Sketch.</desc>
    <defs></defs>
    <g id="Icon_Badge_Graphic" stroke="none" stroke-width="1" fill="none" fill-rule="evenodd">
        <g id="##Element/Badge/Family01">
            <rect id="Rectangle-2" fill="#F76252" x="0" y="0" width="32" height="32" rx="4"></rect>
            <path d="M24.2599996,15.58 L21.4999996,15.58 L21.4999996,24.82 L19.4599996,24.82 L19.4599996,7 L21.4999996,7 L21.4999996,13.88 L24.2599996,13.88 L24.2599996,15.58 Z M18.1399996,19.46 C15.9999996,19.98 12.4799996,20.24 10.2399996,20.26 L8.39999962,20.28 L8.39999962,8.82 L10.4199996,8.82 L10.4199996,18.54 C12.7399996,18.54 15.8399996,18.32 17.8599996,17.78 L18.1399996,19.46 Z" id="나" fill="#FFFFFF"></path>
        </g>
    </g>
</svg>

<svg height="32" viewBox="0 0 32 32" width="32" xmlns="http://www.w3.org/2000/svg"><g fill="none" fill-rule="evenodd"><rect fill="#f76252" height="32" rx="4" width="32"/><path d="m24.2599996 15.58h-2.76v9.24h-2.04v-17.82h2.04v6.88h2.76zm-6.12 3.88c-2.14.52-5.66.78-7.9.8l-1.83999998.02v-11.46h2.01999998v9.72c2.32 0 5.42-.22 7.44-.76z" fill="#fff"/></g></svg>
